UI/Travel-Transport-Tracking/SVG/alert_outline_24px.svg

<svg width="24" height="24" viewBox="0 0 24 24" fill="none" xmlns="http://www.w3.org/2000/svg">
<path d="M12 4L20 20H4.00004L12 4ZM12 2C11.628 2.0002 11.2633 2.10419 10.9471 2.30028C10.6309 2.49637 10.3756 2.77679 10.21 3.11L2.21004 19.11C2.05856 19.4148 1.98739 19.7533 2.00328 20.0933C2.01916 20.4334 2.12158 20.7637 2.30082 21.0531C2.48006 21.3425 2.7302 21.5814 3.02756 21.7471C3.32491 21.9128 3.65963 21.9998 4.00004 22H20C20.3404 21.9998 20.6752 21.9128 20.9725 21.7471C21.2699 21.5814 21.52 21.3425 21.6993 21.0531C21.8785 20.7637 21.9809 20.4334 21.9968 20.0933C22.0127 19.7533 21.9415 19.4148 21.79 19.11L13.79 3.11C13.6245 2.77679 13.3692 2.49637 13.053 2.30028C12.7368 2.10419 12.3721 2.0002 12 2ZM11 9V14H13V9H11ZM11 16V18H13V16H11Z" fill="#0F1621"/>
</svg>

<svg xmlns="http://www.w3.org/2000/svg" width="24" height="24" viewBox="0 0 24 24"><rect width="24" height="24" style="fill:none"/><path d="M12,4l8,16H4L12,4h0m0-2a2,2,0,0,0-1.79,1.11l-8,16A2,2,0,0,0,4,22H20a2,2,0,0,0,1.79-2.89l-8-16A2,2,0,0,0,12,2ZM11,9v5h2V9Zm0,7v2h2V16Z"/></svg>
